X:1
T:Queen Jane
M:6/4
L:1/8
K:C
 C2| E8 D2 C2| D2 C8 G2| A2 A6-A-G Ac|A-G G8 F2| G c- c8 F2| _B2 G8 CC|\
 F G- G8C-=B,| C8 z2||
